public/facebook.svg

<svg width="28" height="28" viewBox="0 0 28 28" fill="none" xmlns="http://www.w3.org/2000/svg">
<path d="M10.7328 25.0827H15.3995V15.7377H19.6042L20.0662 11.0943H15.3995V8.74935C15.3995 8.43993 15.5224 8.14318 15.7412 7.92439C15.96 7.7056 16.2567 7.58268 16.5662 7.58268H20.0662V2.91602H16.5662C15.0191 2.91602 13.5353 3.5306 12.4414 4.62456C11.3474 5.71852 10.7328 7.20225 10.7328 8.74935V11.0943H8.3995L7.9375 15.7377H10.7328V25.0827Z" fill="white"/>
</svg>

<svg xmlns="http://www.w3.org/2000/svg" width="28" height="28" fill="none"><path d="M10.733 25.083H15.4v-9.345h4.205l.462-4.643H15.4V8.749c0-.309.123-.606.342-.825s.515-.342.825-.342h3.5V2.916h-3.5c-1.547 0-3.031.615-4.125 1.709s-1.709 2.578-1.709 4.125v2.345H8.4l-.462 4.643h2.795v9.345z" fill="#66fecb"/></svg>
